svgs/sharp-solid/film-simple.svg

<svg xmlns="http://www.w3.org/2000/svg" viewBox="0 0 512 512"><!--! Font Awesome Pro 6.6.0 by @fontawesome - https://fontawesome.com License - https://fontawesome.com/license (Commercial License) Copyright 2024 Fonticons, Inc. --><path d="M384 32L128 32l0 64L64 96l0-64L0 32 0 480l64 0 0-64 64 0 0 64 256 0 0-64 64 0 0 64 64 0 0-448-64 0 0 64-64 0 0-64zM64 160l64 0 0 64-64 0 0-64zm384 0l0 64-64 0 0-64 64 0zM64 288l64 0 0 64-64 0 0-64zm384 0l0 64-64 0 0-64 64 0z"/></svg>

<svg xmlns="http://www.w3.org/2000/svg" viewBox="0 0 512 512"><!--! Font Awesome Pro 6.4.0 by @fontawesome - https://fontawesome.com License - https://fontawesome.com/license (Commercial License) Copyright 2023 Fonticons, Inc. --><path d="M384 32H128V96H64V32H0V480H64V416h64v64H384V416h64v64h64V32H448V96H384V32zM64 160h64v64H64V160zm384 0v64H384V160h64zM64 288h64v64H64V288zm384 0v64H384V288h64z"/></svg>
